!!!!SEGMENT: pl-wn--sd-xvi-o-241_anonim--kancjonal-zamoyskich-podobienstwo-zywota-krzescijanskiego-coz-chcesz-czynic-moj-mily-czlowiecze.krn
!!!cenid: 15xx:799
!!!COM: Anonim
!!!COM-rismID: pe30004985
!!!CDT:
!!!CNT:
!!!GTL: Kancjonał Zamoyskich
!!!OTL: Podobieństwo żywota krześcijańskiego/Cóż chcesz czynić mój miły człowiecze
!!!PDT: 1558
!!!AGN:
!!!SMS-siglum: PL-Wn
!!!SMS-shelfmark: SD XVI.O.241
!!!SMS-shelfwork: G
!!!SMS-variant:
!!!SMS-altvar:
!!!NIFC-rismSourceID:
!!!NIFC-rismChildID:
!!!NIFC-islandoraID: none
!!!URL-pdf-islandora:
!!!URL-scan: https://polona2.pl/item/podobienstwo-zywota-krzescianskiego,MjYzMjMy/6 @EN{Scan on Polona} @PL{Skany w portalu Polona}
!!!IIIF: https://polona2.pl/iiif/item/MjYzMjMy/manifest.json
!!!ONB-nifc: UWAGA: proszę zapisywać tylko teksty występujące bezpośrednio pod nutami
!!!AIN: 1 alto 1 bass 1 soprn 1 tenor
!!!key: d
**kern	**text	**mod-text	**kern	**text	**mod-text	**kern	**text	**mod-text	**kern	**text	**mod-text
*part4	*part4	*part4	*part3	*part3	*part4	*part2	*part2	*part4	*part1	*part1	*part4
*staff4	*staff4	*staff4	*staff3	*staff3	*staff4	*staff2	*staff2	*staff4	*staff1	*staff1	*staff4
*ICvox	*	*	*ICvox	*	*	*ICvox	*	*	*ICvox	*	*
*Ibass	*	*	*Itenor	*	*	*Ialto	*	*	*Isoprn	*	*
*I"BASS.	*	*	*I"TENOR.	*	*	*I"ALT.	*	*	*I"CANTVS.	*	*
*I'B	*	*	*I'T	*	*	*I'A	*	*	*I'S	*	*
*mI"Basso	*	*	*mI"Tenore	*	*	*mI"Alto	*	*	*mI"Soprano	*	*
*clefF4	*	*	*clefC4	*	*	*clefC3	*	*	*clefC1	*	*
*	*	*	*mclefGv2	*	*	*mclefG2	*	*	*mclefG2	*	*
*k[b-]	*	*	*k[b-]	*	*	*k[b-]	*	*	*k[b-]	*	*
*d:	*	*	*d:	*	*	*d:	*	*	*d:	*	*
*M2/1	*	*	*M2/1	*	*	*M2/1	*	*	*M2/1	*	*
*met(C)	*	*	*met(C)	*	*	*met(C)	*	*	*met(C)	*	*
*mmet(c|)	*	*	*mmet(c|)	*	*	*mmet(c|)	*	*	*mmet(c|)	*	*
=1-	=1-	=1-	=1-	=1-	=1-	=1-	=1-	=1-	=1-	=1-	=1-
*xywh-#10:354,272,2083,909	*	*	*xywh-#9:199,155,2183,908	*	*	*xywh-#8:358,1936,2096,639	*	*	*xywh-#8:260,218,2167,818	*	*
2D/	Cóż	Cóż	2d\	Coż	Cóż	2f\	Coż	Cóż	2a\	Cóż	Cóż
2D/	chceſz	chcesz	2d\	chceſz	chcesz	2f\	chceſz	chcesz	2a\	chceſz	chcesz
2D/	czy-	czy-	2d\	czy-	czy-	2f\	czy-	czy-	2a\	czy-	czy-
2A\	-nić	-nić	2e\	-nić	-nić	2e\	-nić	-nić	2cc\	-nić	-nić
=2-	=2-	=2-	=2-	=2-	=2-	=2-	=2-	=2-	=2-	=2-	=2-
1F\	moy	mój	1f\	moy	mój	1a\	moy	mój	1cc\	moy	mój
2F\	mi-	mi-	2c\	mi-	mi-	2f\	mi-	mi-	2a\	mi-	mi-
1BB-/	-ły	-ły	1d\	-ły	-ły	1f\	-ły	-ły	1b-\	-ły	-ły
=3-	=3-	=3-	=3-	=3-	=3-	=3-	=3-	=3-	=3-	=3-	=3-
.	.	.	.	.	.	.	.	.	.	.	.
2F\	czło-	czło-	2c\	czło-	czło-	2f\	czło-	czło-	1a\	czło-	czło-
1G\	-wie-	-wie-	1B-\	-wie-	-wie-	1d\	-wie-	-wie-	.	.	.
.	.	.	.	.	.	.	.	.	2g/	-wie-	-wie-
=4-	=4-	=4-	=4-	=4-	=4-	=4-	=4-	=4-	=4-	=4-	=4-
!LO:SIC:v:t=custos  D	!	!	!LO:SIC:v:t=custos A	!	!	!	!	!	!	!	!
1D\	-cze/	-cze	1A\	-cze/	-cze	1d\	-cze.	-cze	1a\	-cze.	-cze
*xywh-#10:359,1153,2061,665	*	*	*xywh-#9:193,1042,2167,645	*	*	*	*	*	*	*	*
!LO:LB:g=original	!	!	!LO:LB:g=original	!	!	!	!	!	!	!	!
1r	.	.	1r	.	.	1r	.	.	1r	.	.
=5-	=5-	=5-	=5-	=5-	=5-	=5-	=5-	=5-	=5-	=5-	=5-
1D\	Gdyź	Gdyź	1A\	Gdyź	Gdyź	1d\	Gdyż	Gdyź	1f/	Gdyż	Gdyź
2D/	wieſz	wiesz	2A/	wieſz	wiesz	2d\	wieſz	wiesz	2f/	wieſz	wiesz
!LO:MO:mod=[2F	!	!	!LO:MO:mod=[2A	!	!	!LO:MO:mod=[2c	!	!	!LO:MO:mod=[2a	!	!
2.F\	żeć	żeć	1A\	żeć	żeć	1c\	że	żeć	2.a\	żeć	żeć
=6-	=6-	=6-	=6-	=6-	=6-	=6-	=6-	=6-	=6-	=6-	=6-
!LO:MO:null:mod=4F]	!	!	!LO:MO:null:mod=2A]	!	!	!LO:MO:null:mod=2c]	!	!	!LO:MO:null:mod=4a]	!	!
.	.	.	.	.	.	.	.	.	.	.	.
!	!	!	!	!	!	!	!	!	!LO:SIC:v:t=custos f	!	!
4E\	.	.	.	.	.	.	.	.	4g/	czás	.
*	*	*	*	*	*	*	*	*	*xywh-#8:309,1020,2134,487	*	*
!	!	!	!	!	!	!LO:SIC:v:t=custos f	!	!	!LO:LB:g=original	!	!
2D/	czás	czas	2d\	czás	czas	2f\	ćczás	czas	2f/	iá-	czas
*	*	*	*	*	*	*xywh-#8:347,2521,2129,487	*	*	*	*	*
!	!	!	!	!	!	!LO:LB:g=original	!	!	!	!	!
2F\	iá-	ja-	2c\	iá-	ja-	2f\	iá-	ja-	2a\	-ko	ja-
2F\	-ko	-ko	2c\	-ko	-ko	2f\	-ko	-ko	2a\	wo-	-ko
=7-	=7-	=7-	=7-	=7-	=7-	=7-	=7-	=7-	=7-	=7-	=7-
2BB-/	wo-	wo-	2B-\	wo-	wo-	2d\	wo-	wo-	2g/	-dá	wo-
!	!	!	!	!	!	!	!	!	!LO:MO:mod=1f	!	!
2F\	-dá	-da	2A/	-dá	-da	2c\	-dá	-da	1a\	ćie-	-da
1C/	ćie-	cie-	1G/	ćie-	cie-	1c\	ćie-	cie-	.	.	.
!	!	!	!	!	!	!	!	!	!LO:TX:t=P:problem:fragment nieczytelny - korekty	!	!
!	!	!	!	!	!	!	!	!	!LO:N:vis=1	!	!
!	!	!	!	!	!	!	!	!	!LO:MO:mod=2e	!	!
.	.	.	.	.	.	.	.	.	1.f/	-cze.	cie-
=8-	=8-	=8-	=8-	=8-	=8-	=8-	=8-	=8-	=8-	=8-	=8-
!LO:SIC:v:t=custos F	!	!	!LO:SIC:v:t=custos A	!	!	!	!	!	!LO:MO:null:mod=1f	!	!
1F\	-cze.	-cze.	1F/	-cze.	-cze.	1c\	-cze.	-cze.	.	.	-cze.
*xywh-#10:359,1802,2056,649	*	*	*xywh-#9:231,1675,2076,640	*	*	*	*	*	*	*	*
!LO:LB:g=original	!	!	!LO:LB:g=original	!	!	!	!	!	!	!	!
1r	.	.	1r	.	.	1r	.	.	1r	.	.
=9-	=9-	=9-	=9-	=9-	=9-	=9-	=9-	=9-	=9-	=9-	=9-
1F\	A	A	1A\	A	A	1f\	A	A	1cc\	A	A
2F\	co	co	2A/	co	co	2f\	co	co	2cc\	co	co
1A\	bli-	bli-	1c\	bli-	bli-	1e\	bli-	bli-	1a\	bli-	bli-
=10-	=10-	=10-	=10-	=10-	=10-	=10-	=10-	=10-	=10-	=10-	=10-
.	.	.	.	.	.	.	.	.	.	.	.
2A\	-żey	-żej	2c\	-żey	-żej	2f\	-żey	-żej	2cc\	-żey	-żej
2G\	to	to	2d\	to	to	2g\	to	to	2b-\	to	to
2G\	do	do	2d\	do	do	2g\	do	do	2b-\	do	do
=11-	=11-	=11-	=11-	=11-	=11-	=11-	=11-	=11-	=11-	=11-	=11-
2A\	kre-	kre-	2c\	kre-	kre-	2e\	kre-	kre-	2a\	kre-	kre-
!	!	!	!	!	!	!	!	!	!LO:MO:mod=1a	!	!
2D/	-ſu	-su	2d\	-ſu	-su	2f\	-ſu	-su	1cc\	-ſu	-su
!	!	!	!	!	!	!LO:SIC:v:t=custos d	!	!	!	!	!
1G\	bie-	bie-	1B-\	bie-	bie-	1d\	bie-	bie-	.	.	.
!	!	!	!	!	!	!	!	!	!LO:SIC:v:t=custos a	!	!
!	!	!	!	!	!	!	!	!	!LO:MO:mod=2g	!	!
.	.	.	.	.	.	.	.	.	2b-\	bie-	bie-
=12-	=12-	=12-	=12-	=12-	=12-	=12-	=12-	=12-	=12-	=12-	=12-
*	*	*	*	*	*	*xywh-#8:347,2970,2085,520	*	*	*xywh-#8:396,1481,2004,465	*	*
!LO:SIC:v:t=custos F	!	!	!LO:SIC:v:t=custos D	!	!	!LO:LB:g=original	!	!	!LO:LB:g=original	!	!
1D/	-żyſz.	-żysz.	1A\	-żyſz/	-żysz.	1d\	-żyſz.	-żysz.	1a\	-żyſz.	-żysz.
*xywh-#10:344,2341,2029,703	*	*	*xywh-#9:231,2278,2054,844	*	*	*	*	*	*	*	*
!LO:LB:g=original	!	!	!	!	!	!	!	!	!	!	!
1r	.	.	1r	.	.	1r	.	.	1r	.	.
=13-	=13-	=13-	=13-	=13-	=13-	=13-	=13-	=13-	=13-	=13-	=13-
!	!	!	!LO:LB:g=original	!	!	!	!	!	!	!	!
2.F\	Przecz	Przecz	1D/	Przecz	Przecz	1A/	Przecz. etc	Przecz	2.a\	[Przecz	[Przecz
4E\	nic	.	.	.	.	.	.	.	4g\	nic	.
*	*	*	*	*	*	*	*ij	*	*	*	*
2D/	nie-	nic	2D/	nic	nic	2A/	nic	nic	2f/	nie-	nic
!LO:MO:mod=[2C	!	!	!LO:MO:mod=[2G	!	!	!LO:MO:mod=[2c	!	!	!LO:MO:mod=[2e	!	!
2.C/	-dbasz	nie	1G/	nie-	nie	1c\	nie-	nie	2.e/	-dbasz	nie
=14-	=14-	=14-	=14-	=14-	=14-	=14-	=14-	=14-	=14-	=14-	=14-
!LO:MO:null:mod=4C]	!	!	!LO:MO:null:mod=2G]	!	!	!LO:MO:null:mod=2c]	!	!	!LO:MO:null:mod=4e]	!	!
.	.	.	.	.	.	.	.	.	.	.	.
4D/	.	.	.	.	.	.	.	.	4f/	.	.
2E\	á	dbasz	2G/	-dbasz	dbasz	2c/	-dbasz	dbasz	2g\	á	dbasz
2D/	bez-	a-	2A/	á	a	2d\	á	a	2f/	bez-	a
2AA/	-ſpiecz-	bez-	2A/	prze-	bez-	2c/	bez-	bez-	2.e/	-ſpiecz-	bez-
=15-	=15-	=15-	=15-	=15-	=15-	=15-	=15-	=15-	=15-	=15-	=15-
2C/	-nie	-piecz-	2G/	-ſpiecz-	-piecz-	2c/	-ſpiecz-	-piecz-	.	.	.
.	.	.	.	.	.	.	.	.	4d/	-nie	-piecz-
2BB-/	le-	-nie	2F/	-nie	-nie	2A/	-nie	-nie	1d/	le-	-nie
1AA/	.	le-	1E/	le-	le-	1A/	le-	le-	.	.	.
!	!	!	!	!	!	!	!	!	!	!	!
.	.	.	.	.	.	.	.	.	2c/	.	le-
=16-	=16-	=16-	=16-	=16-	=16-	=16-	=16-	=16-	=16-	=16-	=16-
0D\l	-żyſz.	-żysz.	0D/l	-żyſz.	-żysz.	0A/l	-żyſz.	-żysz.	0d/l	-żyſz.]	-żysz.]
*	*	*	*	*	*	*	*Xij	*	*	*	*
!	!	!	!LO:TX:t=A ij.:b:B:mod=	!	!	!	!	!	!	!	!
==	==	==	==	==	==	==	==	==	==	==	==
*-	*-	*-	*-	*-	*-	*-	*-	*-	*-	*-	*-
!!!system-decoration: [(*)]
!!LO:MO:ori
!!!RDF**kern: l =terminal long
!!LO:MO:end
!!!filter-modern: sic -sq | shed -k -e "s/LO:N:vis/LO:n:vis:/L" | shed -e "s/^(\d+[\/\\]right)/$1yy/I;s/^(\d+[\/\\]left)/$1yy/I" | shed -e "s/-//B" | shed -e "s/^custos:/Xcustos:/I" | shed -k -e "s/LO:N:acc/LO:n:acc:/L" | autostem -r | tie -s | humtr -p | modori -m
!!!ENC: Arkadiusz Malec
!!!END: 2022-04-24
!!!ENC: Krzysztof Stępień
!!!END: 2022-05-05
!!!ENC-modern: Andrzej Borzym
!!!END-modern: 2022-07-22
!!!ENC-iiif: Emilia Ziętek
!!!END-iiif: 2022-09-02
!!!YEC: Copyright 2022 Narodowy Instytut Fryderyka Chopina (https://polishscores.org)
!!!YEM: License CC-BY-4.0 (https://creativecommons.org/licenses/by/4.0)
